swiss/communes/5181.svg

<svg xmlns="http://www.w3.org/2000/svg" xmlns:xlink="http://www.w3.org/1999/xlink" height="763" width="603" version="1.0"><defs><radialGradient xlink:href="#a" id="b" gradientUnits="userSpaceOnUse" gradientTransform="matrix(1.21503 0 0 1.26667 -839.192 -490.49)" cx="858.042" cy="579.933" fx="858.042" fy="579.933" r="300"/><linearGradient id="a"><stop style="stop-color:#fff;stop-opacity:.3137255" offset="0"/><stop offset=".19" style="stop-color:#fff;stop-opacity:.25098041"/><stop style="stop-color:#6b6b6b;stop-opacity:.1254902" offset=".6"/><stop style="stop-color:#000;stop-opacity:.1254902" offset="1"/></linearGradient></defs><g style="opacity:1"><path d="M1.5 1.5v458.868c0 166.311 134.314 301.132 300 301.132s300-134.821 300-301.132V1.5H1.5z" style="opacity:1;fill:#fcef3c"/></g><g style="opacity:1"><path style="stroke:#fcef3c;stroke-width:3;stroke-linecap:round;stroke-linejoin:round" d="M333.53 155.984c-28.209 5.084-60.037 11.293-65.701 12.537-8.819 1.936-19.361 9.465-21.297 22.803-1.936 13.338-2.366 18.07-12.047 18.07-18.286 0-63.418 15.175-78.735 23.234-4.088 2.151-17.21 2.151-40.229 2.151-12.048 0-6.668 25.6 6.239 25.6 0 0 1.72 26.675 16.779 26.675s24.309-19.146 82.392 3.227 58.083 30.547 58.083 39.583c0 9.036 3.243 28.295-70.56 38.077-17.855 2.367-28.826 2.478-28.826 13.338 0 3.873 13.123 14.413 26.46 14.413 24.523 0-1.5-19.92 130.149-27.966 2.972-.182 5.843-.422 8.618-.718 0 0 .202 37.935-68.637 37.935 0 0 12.908 5.915 14.36 16.564 0 0-42.434-5.163-66.635 38.077 0 0 6.776-3.551 22.265 0 0 0-62.278 49.371-62.278 179.412 0 0 52.598-38.723 100.033-38.723 67.764 0 137.464-29.687 171.023-87.77 0 0 4.518 5.809 6.454 20.974 0 0 30.978-30.654 37.754-78.734 0 0 8.39 4.841 14.359 14.359 0 0-9.196-116.651 16.619-129.559 0 0-21.943-13.553-21.943-39.69 0-54.211-42.07-103.945-65.828-121.492 12.423-64.86-23.233-83.253-23.233-83.253 1.323 4.227 3.03 22.427-4.587 33.585-5.076 7.437-10.787 13.936-14.764 20.805 0 0-1.322-.874-6.318-1.173 8.642-65.369-30.155-81.989-30.155-81.989 1.936 16.995-1.075 27.106-14.628 49.263-13.552 22.159-15.186 40.385-15.186 40.385z"/><path style="fill:#fff;stroke:#000;stroke-width:3;stroke-linecap:square" d="M219.846 288.242a238.097 238.097 0 0 0-11.343-3.976c-.083.326-3.437 13.699 4.96 25.854 0 .001 1.813-14.899 6.383-21.878zm-69.303-6.668s-1.297 12.661 10.563 21.387c0 0-2.29-15.088 1.091-24.547-4.571.768-8.329 1.964-11.654 3.16zm102.523 64.122s-1.793 8.065 1.005 14.212c3.011-1.042 5.695-2.109 8.093-3.193-.01-.002-5.298-1.853-9.098-11.019zm5.71-40.723c-3.068-1.575-6.544-3.248-10.481-5.032-.004.009-3.727 7.723 2.981 14.431 0 0 1.351-7.388 7.5-9.399zm-23.834 44.303s-3.436 7.176-1.719 16.229a211.184 211.184 0 0 0 10.365-2.437c-.008-.005-7.081-4.623-8.646-13.792zm-46.817 23.519.014.005c2.71-.75 5.952-1.288 9.662-1.789v-.004s-6.265-6.963-6.265-15.018c0 0-5.927 10.342-3.411 16.806zm5.201-64.017s-1.493-16.162 5.174-27.428c-4.762-1.233-9.102-2.129-13.048-2.728-.013.128-1.936 18.339 7.874 30.156zm19.69 42.96s-4.557 10.589-2.28 17.599c3.74-.516 7.289-1.054 10.647-1.614-.023-.015-7.027-4.146-8.367-15.985zm14.579-60.501c-.001.004-3.39 8.369 3.32 19.554 0 0 3.74-10.141 8.38-14.782a561.946 561.946 0 0 0-11.7-4.772z"/><path style="fill:#e20909;stroke:#000;stroke-width:3.20000005;stroke-linecap:square" d="M282.584 332.031c-.002-.772-.02-1.499-.02-2.167 0-1.419 0-2.819-.23-4.254-12.755-1.662-31.918-2.978-58.18-1.768-65.409 3.012-145.913 14.197-143.725-59.375 0 0-30.121 52.059 8.094 77.983 27.127 18.401 76.353 15.758 125.902 1.237 31.627-9.269 53.025-10.542 68.159-11.656z"/><path d="M344.856 367.008c69.561-7.416 78.654-49.414 82.378-60.377M393.5 148.326c-4.142-.248-10.807-.101-21.336 1.264-8.315 1.078-22.912 3.561-38.634 6.394M384.319 186.914s4-17.554 15.499-37.415M422.289 148.729s-16.35 16.565-16.35 52.706M271.702 210.147s28.396-23.233 49.371-5.808" style="fill:none;stroke:#fcef3c;stroke-width:3;stroke-linecap:round;stroke-linejoin:round"/><ellipse style="fill:#fff" cx="302.68" cy="217.569" rx="10.793" ry="7.472"/></g><g style="display:inline"><path style="fill:url(#b);fill-opacity:1" d="M1.5 1.5v458.868c0 166.31 134.315 301.132 300 301.132s300-134.821 300-301.132V1.5H1.5z"/></g><g style="display:inline"><path style="fill:none;fill-opacity:1;stroke:#000;stroke-width:3;stroke-miterlimit:4;stroke-dasharray:none;stroke-opacity:1" d="M1.5 1.5v458.868c0 166.31 134.315 301.132 300 301.132s300-134.821 300-301.132V1.5H1.5z"/></g></svg>

<?xml version="1.0" encoding="UTF-8" standalone="no"?>
<svg
   xmlns:dc="http://purl.org/dc/elements/1.1/"
   xmlns:cc="http://creativecommons.org/ns#"
   xmlns:rdf="http://www.w3.org/1999/02/22-rdf-syntax-ns#"
   xmlns:svg="http://www.w3.org/2000/svg"
   xmlns="http://www.w3.org/2000/svg"
   xmlns:xlink="http://www.w3.org/1999/xlink"
   xmlns:sodipodi="http://sodipodi.sourceforge.net/DTD/sodipodi-0.dtd"
   xmlns:inkscape="http://www.inkscape.org/namespaces/inkscape"
   height="763"
   width="603"
   version="1.0"
   id="svg20"
   sodipodi:version="0.32"
   inkscape:version="0.46"
   sodipodi:docname="Curio-coat_of_arms.svg"
   sodipodi:docbase="C:\Documents and Settings\Steve\Bureau\Blason Villages Suisse pour Wikipédia (par Delta-9)"
   inkscape:output_extension="org.inkscape.output.svg.inkscape">
  <metadata
     id="metadata31">
    <rdf:RDF>
      <cc:Work
         rdf:about="">
        <dc:format>image/svg+xml</dc:format>
        <dc:type
           rdf:resource="http://purl.org/dc/dcmitype/StillImage" />
        <dc:date>07-AUG-2006</dc:date>
        <dc:creator>
          <cc:Agent>
            <dc:title>Jérôme BLUM (wagner51)</dc:title>
          </cc:Agent>
        </dc:creator>
        <cc:license
           rdf:resource="http://creativecommons.org/licenses/GPL/2.0/" />
        <dc:coverage />
        <dc:description>Gabarit pour le Projet:Blasons de WIkipédia</dc:description>
        <dc:subject>
          <rdf:Bag>
            <rdf:li>blason suisse modèle gabarit projet blasons</rdf:li>
          </rdf:Bag>
        </dc:subject>
        <dc:language>fr</dc:language>
        <dc:title>Gabrit d'un blason suisse</dc:title>
      </cc:Work>
      <cc:License
         rdf:about="http://creativecommons.org/licenses/GPL/2.0/">
        <cc:permits
           rdf:resource="http://web.resource.org/cc/Reproduction" />
        <cc:permits
           rdf:resource="http://web.resource.org/cc/Distribution" />
        <cc:requires
           rdf:resource="http://web.resource.org/cc/Notice" />
        <cc:permits
           rdf:resource="http://web.resource.org/cc/DerivativeWorks" />
        <cc:requires
           rdf:resource="http://web.resource.org/cc/ShareAlike" />
        <cc:requires
           rdf:resource="http://web.resource.org/cc/SourceCode" />
      </cc:License>
    </rdf:RDF>
  </metadata>
  <defs
     id="defs29"><inkscape:perspective
   sodipodi:type="inkscape:persp3d"
   inkscape:vp_x="0 : 381.5 : 1"
   inkscape:vp_y="0 : 1000 : 0"
   inkscape:vp_z="603 : 381.5 : 1"
   inkscape:persp3d-origin="301.5 : 254.33333 : 1"
   id="perspective28" />
<linearGradient
   id="linearGradient2893">
  <stop
     style="stop-color:#ffffff;stop-opacity:0.3137255;"
     offset="0"
     id="stop2895" />
  <stop
     id="stop2897"
     offset="0.19"
     style="stop-color:#ffffff;stop-opacity:0.25098041;" />
  <stop
     style="stop-color:#6b6b6b;stop-opacity:0.1254902;"
     offset="0.60000002"
     id="stop2901" />
  <stop
     style="stop-color:#000000;stop-opacity:0.1254902;"
     offset="1"
     id="stop2899" />
</linearGradient>
<linearGradient
   id="linearGradient2955">
  <stop
     style="stop-color:white;stop-opacity:0;"
     offset="0"
     id="stop2965" />
  <stop
     style="stop-color:black;stop-opacity:0.64583331;"
     offset="1"
     id="stop2959" />
</linearGradient>
<radialGradient
   inkscape:collect="always"
   xlink:href="#linearGradient2893"
   id="radialGradient3236"
   gradientUnits="userSpaceOnUse"
   gradientTransform="matrix(1.215027,1.531577e-24,1.464684e-23,1.266667,-839.1924,-490.4894)"
   cx="858.04236"
   cy="579.93323"
   fx="858.04236"
   fy="579.93323"
   r="300" />
<inkscape:perspective
   id="perspective2503"
   inkscape:persp3d-origin="306 : 264 : 1"
   inkscape:vp_z="612 : 396 : 1"
   inkscape:vp_y="0 : 1000 : 0"
   inkscape:vp_x="0 : 396 : 1"
   sodipodi:type="inkscape:persp3d" />

	
	
	
	
	

	

		
		
		
		
		
	</defs>
  <sodipodi:namedview
     inkscape:window-height="691"
     inkscape:window-width="939"
     inkscape:pageshadow="2"
     inkscape:pageopacity="0.0"
     guidetolerance="10.0"
     gridtolerance="10.0"
     objecttolerance="10.0"
     borderopacity="1.0"
     bordercolor="#666666"
     pagecolor="#ffffff"
     id="base"
     inkscape:zoom="0.41233021"
     inkscape:cx="310.45246"
     inkscape:cy="444.29543"
     inkscape:window-x="1394"
     inkscape:window-y="107"
     inkscape:current-layer="layer2"
     showgrid="false"
     showguides="true"
     inkscape:guide-bbox="true">
    <sodipodi:guide
       orientation="horizontal"
       position="761.5"
       id="guide1885" />
    <sodipodi:guide
       orientation="vertical"
       position="1.5"
       id="guide1887" />
    <sodipodi:guide
       orientation="horizontal"
       position="1.5"
       id="guide1889" />
    <sodipodi:guide
       orientation="vertical"
       position="601.5"
       id="guide1891" />
    <sodipodi:guide
       orientation="vertical"
       position="301.50081"
       id="guide1893" />
  </sodipodi:namedview>
  <desc
     id="desc22">Coat of Arms of Canton of Freiburg (Fribourg)</desc>
  <g
     inkscape:groupmode="layer"
     id="layer1"
     inkscape:label="Fond écu"
     style="opacity:1"
     sodipodi:insensitive="true">
    <path
       d="M 1.5,1.5 L 1.5,460.368 C 1.5,626.679 135.814,761.5 301.5,761.5 C 467.186,761.5 601.5,626.679 601.5,460.368 L 601.5,1.5 L 1.5,1.5 z"
       id="path2510"
       style="opacity:1;fill:#fcef3c" />
  </g>
  <g
     inkscape:groupmode="layer"
     id="layer2"
     inkscape:label="Meubles"
     style="opacity:1"
     sodipodi:insensitive="true">
    <g
       id="g2553">
      <path
         style="stroke:#fcef3c;stroke-width:3;stroke-linecap:round;stroke-linejoin:round"
         d="M 333.53,155.984 C 305.321,161.068 273.493,167.277 267.829,168.521 C 259.01,170.457 248.468,177.986 246.532,191.324 C 244.596,204.662 244.166,209.394 234.485,209.394 C 216.199,209.394 171.067,224.569 155.75,232.628 C 151.662,234.779 138.54,234.779 115.521,234.779 C 103.473,234.779 108.853,260.379 121.76,260.379 C 121.76,260.379 123.48,287.054 138.539,287.054 C 153.598,287.054 162.848,267.908 220.931,290.281 C 279.014,312.654 279.014,320.828 279.014,329.864 C 279.014,338.9 282.257,358.159 208.454,367.941 C 190.599,370.308 179.628,370.419 179.628,381.279 C 179.628,385.152 192.751,395.692 206.088,395.692 C 230.611,395.692 204.588,375.772 336.237,367.726 C 339.209,367.544 342.08,367.304 344.855,367.008 C 344.855,367.008 345.057,404.943 276.218,404.943 C 276.218,404.943 289.126,410.858 290.578,421.507 C 290.578,421.507 248.144,416.344 223.943,459.584 C 223.943,459.584 230.719,456.033 246.208,459.584 C 246.208,459.584 183.93,508.955 183.93,638.996 C 183.93,638.996 236.528,600.273 283.963,600.273 C 351.727,600.273 421.427,570.586 454.986,512.503 C 454.986,512.503 459.504,518.312 461.44,533.477 C 461.44,533.477 492.418,502.823 499.194,454.743 C 499.194,454.743 507.584,459.584 513.553,469.102 C 513.553,469.102 504.357,352.451 530.172,339.543 C 530.172,339.543 508.229,325.99 508.229,299.853 C 508.229,245.642 466.159,195.908 442.401,178.361 C 454.824,113.501 419.168,95.108001 419.168,95.108001 C 420.491,99.335001 422.198,117.535 414.581,128.693 C 409.505,136.13 403.794,142.629 399.817,149.498 C 399.817,149.498 398.495,148.624 393.499,148.325 C 402.141,82.956 363.344,66.336 363.344,66.336 C 365.28,83.331 362.269,93.442 348.716,115.599 C 335.164,137.758 333.53,155.984 333.53,155.984 z"
         id="path2478" />
      <path
         style="fill:#ffffff;stroke:#000000;stroke-width:3;stroke-linecap:square"
         d="M 219.846,288.242 C 215.841,286.729 212.069,285.411 208.503,284.266 C 208.42,284.592 205.066,297.965 213.463,310.12 C 213.463,310.121 215.276,295.221 219.846,288.242 z M 150.543,281.574 C 150.543,281.574 149.246,294.235 161.106,302.961 C 161.106,302.961 158.816,287.873 162.197,278.414 C 157.626,279.182 153.868,280.378 150.543,281.574 z M 253.066,345.696 C 253.066,345.696 251.273,353.761 254.071,359.908 C 257.082,358.866 259.766,357.799 262.164,356.715 C 262.154,356.713 256.866,354.862 253.066,345.696 z M 258.776,304.973 C 255.708,303.398 252.232,301.725 248.295,299.941 C 248.291,299.95 244.568,307.664 251.276,314.372 C 251.276,314.372 252.627,306.984 258.776,304.973 z M 234.942,349.276 C 234.942,349.276 231.506,356.452 233.223,365.505 C 236.954,364.721 240.404,363.907 243.588,363.068 C 243.58,363.063 236.507,358.445 234.942,349.276 z M 188.125,372.795 L 188.139,372.8 C 190.849,372.05 194.091,371.512 197.801,371.011 L 197.801,371.007 C 197.801,371.007 191.536,364.044 191.536,355.989 C 191.536,355.989 185.609,366.331 188.125,372.795 z M 193.326,308.778 C 193.326,308.778 191.833,292.616 198.5,281.35 C 193.738,280.117 189.398,279.221 185.452,278.622 C 185.439,278.75 183.516,296.961 193.326,308.778 z M 213.016,351.738 C 213.016,351.738 208.459,362.327 210.736,369.337 C 214.476,368.821 218.025,368.283 221.383,367.723 C 221.36,367.708 214.356,363.577 213.016,351.738 z M 227.595,291.237 C 227.594,291.241 224.205,299.606 230.915,310.791 C 230.915,310.791 234.655,300.65 239.295,296.009 C 235.707,294.495 231.811,292.905 227.595,291.237 z"
         id="path2480" />
      <path
         style="fill:#e20909;stroke:#000000;stroke-width:3.20000005;stroke-linecap:square"
         d="M 282.584,332.031 C 282.582,331.259 282.564,330.532 282.564,329.864 C 282.564,328.445 282.564,327.045 282.334,325.61 C 269.579,323.948 250.416,322.632 224.154,323.842 C 158.745,326.854 78.241,338.039 80.429,264.467 C 80.429,264.467 50.308,316.526 88.523,342.45 C 115.65,360.851 164.876,358.208 214.425,343.687 C 246.052,334.418 267.45,333.145 282.584,332.031 z"
         id="path2482" />
      <path
         id="path2486"
         d="M 344.856,367.008 C 414.417,359.592 423.51,317.594 427.234,306.631"
         style="fill:none;stroke:#fcef3c;stroke-width:3;stroke-linecap:round;stroke-linejoin:round" />
      <path
         id="path2488"
         d="M 393.5,148.326 C 389.358,148.078 382.693,148.225 372.164,149.59 C 363.849,150.668 349.252,153.151 333.53,155.984"
         style="fill:none;stroke:#fcef3c;stroke-width:3;stroke-linecap:round;stroke-linejoin:round" />
      <path
         id="path2490"
         d="M 384.319,186.914 C 384.319,186.914 388.319,169.36 399.818,149.499"
         style="fill:none;stroke:#fcef3c;stroke-width:3;stroke-linecap:round;stroke-linejoin:round" />
      <path
         id="path2492"
         d="M 422.289,148.729 C 422.289,148.729 405.939,165.294 405.939,201.435"
         style="fill:none;stroke:#fcef3c;stroke-width:3;stroke-linecap:round;stroke-linejoin:round" />
      <path
         id="path2494"
         d="M 271.702,210.147 C 271.702,210.147 300.098,186.914 321.073,204.339"
         style="fill:none;stroke:#fcef3c;stroke-width:3;stroke-linecap:round;stroke-linejoin:round" />
      <ellipse
         style="fill:#ffffff"
         sodipodi:ry="7.4720001"
         sodipodi:rx="10.793"
         sodipodi:cy="217.569"
         sodipodi:cx="302.67999"
         cx="302.67999"
         cy="217.569"
         rx="10.793"
         ry="7.4720001"
         id="ellipse2496" />
    </g>
  </g>
  <g
     inkscape:groupmode="layer"
     id="layer3"
     inkscape:label="Reflet final"
     style="display:inline"
     sodipodi:insensitive="true">
    <path
       style="fill:url(#radialGradient3236);fill-opacity:1"
       d="M 1.5,1.5 L 1.5,460.3679 C 1.5,626.67854 135.81454,761.5 301.49993,761.5 C 467.1854,761.5 601.5,626.67854 601.5,460.3679 L 601.5,1.5 L 1.5,1.5 z "
       id="path2346" />
  </g>
  <g
     inkscape:groupmode="layer"
     id="layer4"
     inkscape:label="Contour final"
     style="display:inline"
     sodipodi:insensitive="true">
    <path
       style="fill:none;fill-opacity:1;stroke:#000000;stroke-width:3;stroke-miterlimit:4;stroke-dasharray:none;stroke-opacity:1"
       d="M 1.5,1.5 L 1.5,460.36794 C 1.5,626.67854 135.81454,761.5 301.49993,761.5 C 467.1854,761.5 601.5,626.67854 601.5,460.36794 L 601.5,1.5 L 1.5,1.5 z "
       id="path3239" />
  </g>
</svg>
